icons/default/Tree.svg

<path
	d="M210.835 189.75L168.668 137.042H200.293L158.126 84.3333H179.21L126.501 21.0833L73.793 84.3333H94.8763L52.7096 137.042H84.3346L42.168 189.75H115.96V231.917H137.043V189.75H210.835Z"
	fill="black" />

<path d="m210.835 189.75-42.167-52.708h31.625l-42.167-52.709h21.084l-52.709-63.25-52.708 63.25h21.083L52.71 137.042h31.625L42.168 189.75h73.792v42.167h21.083V189.75h73.792Z"/>
